X: 1
T: Gahan's
M: 4/4
L: 1/8
R: hornpipe
K: Gmaj
|: (3DEF | Gg (3fga gedB | GFGA BGDc | BdGB cBAG | FAdf ed (3cBA | 
Gg (3fga gedB | DG (3FGA BGDc | (3Bcd GB cAFG | (3ABA GFG2 :|
K:D maj
|: FG | ABAG FAde | (3fga fd Adfa | ~g2eg fedf | (3efe dB (3ABA FG | 
ABAG FD (3FGA | (3fga fd Ad (3fga | gfeg fAdf | edce d2 :|
